X: 4281
T: The Bridge of Perth.   a Reel.
C: by D.D.
%R: reel
B: Niel Gow & Sons "Complete Repository" v.4 p.28 #1
Z: 2021 John Chambers <jc:trillian.mit.edu>
M: C|
L: 1/8
K: A
% - - - - - - - - - -
% Voice 1 formatted for compactness and proofreading.
V: 1 staves=2
|:\
(A/B/c/d/) eA dAfA | cAec ae~c2 | (A/B/c/d/) ed ceA=c | Bd=GB gd{c}B2 :| Aaea caea | Aaef eA~c2 |
Aaea caAa | =gbeg BG~B2 || Aaea caea | Aaef eA~c2 | Aa^ga eaca | B=gdg BG~B2 |]
% - - - - - - - - - -
% Voice 2 preserves the book's staff layout.
V: 2 clef=bass middle=d
|:\
a2a2 a2a2 | a2a2 a2a2 | a2a2 a2a2 | =g2g2 g2g2 :| a2a2 a2a2 | a2a2 a2a2 |
a2a2 a2a2 | =g2g2 g2g2 || a2a2 a2a2 | a2a2 a2a2 | a2a2 a2a2 | =g2g2 g2g2 |]


